X:1
T:Renfield, 87.87 D
T:Renfield, 87.87 D
T:E. Roberts, 1864
T:Public Domain Courtesy of the Cyber Hymnal™
C:E. Roberts, 1864
Z:Public Domain
Z:Courtesy of the Cyber Hymnal™
%%score ( 1 2 ) ( 3 4 )
L:1/8
Q:1/4=100
M:6/8
K:C
V:1 treble 
V:2 treble 
V:3 bass 
V:4 bass 
V:1
 [Ec]2 [Ec] ([Ge][Fd])[Ec] | [FA]2 [FA] ([Ac][GB])[FA] | G2 [Ec] [Ec]2 [Ge] | [Ge]2 [Gc] [Gd]3 | %4
 [Ec]2 [Ec] ([Ge][Fd])[Ec] | [FA]2 [FA] ([Ac][GB])[FA] | G2 [Ec] [Ec]2 [^Fd] | [Ge]2 [Fd] [Ec]3 | %8
 [GB]2 [GB] ([GB][Ac])[Bd] | [Bd]2 [Ac] [Ac]2 [GB] | [Gc]2 [Gc] (cd)[Ge] | [Gf]2 [Ge] e2 d | %12
 [Ec]2 [Ec] ([Ge][Fd])[Ec] | [FA]2 [FA] ([Ac][GB])[FA] | G2 [Ec] [Ec]2 [^Fd] | [Ge]3 [Fd]3 | %16
 [Ec]6 |] %17
V:2
 x6 | x6 | G2 x4 | x6 | x6 | x6 | G2 x4 | x6 | x6 | x6 | x3 G2 x | x3 G3 | x6 | x6 | G2 x4 | x6 | %16
 x6 |] %17
V:3
 [C,G,]2 [C,G,] [C,C]2 [C,C] | [F,C]2 [F,C] [F,C]2 [F,C] | [E,C]2 [C,G,] [C,G,]2 [C,C] | %3
 [C,C]2 [E,C] [G,B,]3 | [C,G,]2 [C,G,] [C,C]2 [C,C] | [F,C]2 [F,C] [F,C]2 [F,C] | %6
 [E,C]2 [C,C] [A,C]2 [A,C] | [G,C]2 [G,B,] [C,C]3 | [G,D]2 [G,D] [G,D]2 [G,D] | %9
 [D,D]2 [D,D] [G,D]2 [G,D] | [E,C]2 [E,C] ([E,C][G,B,])C | [B,D]2 C C2 B, | %12
 [C,G,]2 [C,G,] [C,C]2 [C,C] | [F,C]2 [F,C] [F,C]2 [F,C] | [E,C]2 [C,C] [A,C]2 [A,C] | %15
 [G,C]3 [G,B,]3 | [C,C]6 |] %17
V:4
 x6 | x6 | x6 | x6 | x6 | x6 | x6 | x6 | x6 | x6 | x5 C | x2 C G,3 | x6 | x6 | x6 | x6 | x6 |] %17

